packages/ui-icons/src/Basic/24/Railway_24.svg

<svg xmlns="http://www.w3.org/2000/svg" viewBox="0 0 32 32"><path d="m25 7.58-.35-.3A13.42 13.42 0 0 0 16 4.05a13.42 13.42 0 0 0-8.61 3.23l-.39.3V24h2.47l-2.3 3.38 1.66 1.12 1-1.5h12.32l1 1.5 1.66-1.12L22.53 24H25ZM11.21 25l.68-1h8.23l.68 1ZM23 22H9v-5h14Zm0-7H9v-3h14Zm0-5H9V8.51a11.16 11.16 0 0 1 14 0Z"/><circle cx="11.54" cy="19.5" r="1.5"/><circle cx="20.54" cy="19.5" r="1.5"/><path d="M13.04 7h6v2h-6z"/></svg>

<svg id="Ready" xmlns="http://www.w3.org/2000/svg" viewBox="0 0 32 32"><title>Megaicons_work_24_1.8_cp</title><path d="M25,7.58l-.35-.3A13.42,13.42,0,0,0,16,4.05,13.42,13.42,0,0,0,7.39,7.28L7,7.58V24H9.47l-2.3,3.38L8.83,28.5l1-1.5H22.15l1,1.5,1.66-1.12L22.53,24H25ZM11.21,25l.68-1h8.23l.68,1ZM23,22H9V17H23Zm0-7H9V12H23Zm0-5H9V8.51a11.16,11.16,0,0,1,14,0Z"/><circle cx="11.54" cy="19.5" r="1.5"/><circle cx="20.54" cy="19.5" r="1.5"/><rect x="13.04" y="7" width="6" height="2"/></svg>
